images_elementary_svg/cmd/32/donation.svg

<svg height="32" width="32" xmlns="http://www.w3.org/2000/svg" xmlns:xlink="http://www.w3.org/1999/xlink"><linearGradient id="a"><stop offset="0"/><stop offset="1" stop-opacity="0"/></linearGradient><linearGradient id="b" gradientTransform="matrix(.0845 0 0 .01235 -6.54 38.47)" gradientUnits="userSpaceOnUse" x1="302.857" x2="302.857" y1="366.648" y2="609.505"><stop offset="0" stop-opacity="0"/><stop offset=".5"/><stop offset="1" stop-opacity="0"/></linearGradient><radialGradient id="c" cx="605.714" cy="486.648" gradientTransform="matrix(-.02892 0 0 .01235 21.027 38.47)" gradientUnits="userSpaceOnUse" r="117.143" xlink:href="#a"/><radialGradient id="d" cx="605.714" cy="486.648" gradientTransform="matrix(.02892 0 0 .01235 26.973 38.47)" gradientUnits="userSpaceOnUse" r="117.143" xlink:href="#a"/><linearGradient id="e" gradientTransform="matrix(.78378 0 0 .62162 -2.81 2.08)" gradientUnits="userSpaceOnUse" x1="40.29" x2="40.29" y1="6.304" y2="41.696"><stop offset="0" stop-color="#fff"/><stop offset=".035" stop-color="#fff" stop-opacity=".235"/><stop offset=".964" stop-color="#fff" stop-opacity=".157"/><stop offset="1" stop-color="#fff" stop-opacity=".392"/></linearGradient><linearGradient id="f" gradientTransform="matrix(.69565 0 0 .66667 -.696 -2.667)" gradientUnits="userSpaceOnUse" x1="22.5" x2="22.5" y1="19.5" y2="44.625"><stop offset="0" stop-color="#273445"/><stop offset="1" stop-color="#0e141f"/></linearGradient><linearGradient id="g" gradientTransform="matrix(.76667 0 0 .80325 -.1 11.082)" gradientUnits="userSpaceOnUse" x1="10" x2="20" y1="-3" y2="12"><stop offset="0" stop-color="#fff"/><stop offset="1" stop-color="#fff" stop-opacity="0"/></linearGradient><linearGradient id="h" gradientTransform="matrix(.71146 0 0 .688 -1.423 -5.057)" gradientUnits="userSpaceOnUse" x1="23.25" x2="23.25" y1="-28.809" y2="70.295"><stop offset="0" stop-color="#fafafa"/><stop offset="1" stop-color="#95a3ab"/></linearGradient><g opacity=".3"><path d="m3.6 43h40.8v3h-40.8z" fill="url(#b)" transform="matrix(.66666 0 0 1.33333 0 -30.333)"/><path d="m3.6 43v3c-1.49.006-3.6-.672-3.6-1.5s1.662-1.5 3.6-1.5z" fill="url(#c)" transform="matrix(.66666 0 0 1.33333 0 -30.333)"/><path d="m44.4 43v3c1.49.006 3.6-.672 3.6-1.5s-1.662-1.5-3.6-1.5z" fill="url(#d)" transform="matrix(.66666 0 0 1.33333 0 -30.333)"/></g><rect fill="url(#h)" height="25" rx="2" width="31" x=".5" y="4.5"/><rect fill="none" height="23" opacity=".5" rx="1" stroke="url(#e)" stroke-linecap="round" stroke-linejoin="round" width="29" x="1.5" y="5.5"/><rect fill="none" height="25" opacity=".5" rx="2" stroke="#667885" stroke-linecap="round" stroke-linejoin="round" width="31" x=".5" y="4.5"/><path d="m0 10h32v4h-32z" fill="url(#f)"/><path d="m3.5 17.5h16v3h-16z" fill="#fafafa" stroke="#95a3ab"/><path d="m3.702 19 1.418-1.322m-.71 2.644 2.837-2.644m-.709 2.644 2.835-2.644m-.709 2.644 2.836-2.644m-.71 2.644 2.837-2.644m-.709 2.644 2.835-2.644m-.709 2.644 2.836-2.644m-.71 2.644 2.13-1.982" fill="none" opacity=".3" stroke="#95a3ab" stroke-width=".696"/><path d="m3 5c-1.108 0-2 .92-2 2.066v11.934l30-10.314v-1.62c0-1.146-.892-2.066-2-2.066z" fill="url(#g)" opacity=".2"/><circle cx="27" cy="26" fill="#fff" opacity=".1" r="1"/><circle cx="27" cy="25" fill="#667885" opacity=".25" r="1"/><circle cx="23" cy="26" fill="#fff" opacity=".1" r="1"/><circle cx="23" cy="25" fill="#667885" opacity=".25" r="1"/></svg>

<svg xmlns="http://www.w3.org/2000/svg" xmlns:xlink="http://www.w3.org/1999/xlink" version="1" width="32" height="32"><defs><linearGradient id="b"><stop offset="0"/><stop offset="1" stop-opacity="0"/></linearGradient><linearGradient id="a"><stop offset="0" stop-opacity="0"/><stop offset=".5"/><stop offset="1" stop-opacity="0"/></linearGradient><linearGradient x1="302.857" y1="366.648" x2="302.857" y2="609.505" id="g" xlink:href="#a" gradientUnits="userSpaceOnUse" gradientTransform="matrix(.0845 0 0 .01235 -6.54 38.47)"/><radialGradient cx="605.714" cy="486.648" r="117.143" fx="605.714" fy="486.648" id="h" xlink:href="#b" gradientUnits="userSpaceOnUse" gradientTransform="matrix(-.02892 0 0 .01235 21.027 38.47)"/><radialGradient cx="605.714" cy="486.648" r="117.143" fx="605.714" fy="486.648" id="i" xlink:href="#b" gradientUnits="userSpaceOnUse" gradientTransform="matrix(.02892 0 0 .01235 26.973 38.47)"/><linearGradient id="c"><stop offset="0" stop-color="#fff"/><stop offset=".035" stop-color="#fff" stop-opacity=".235"/><stop offset=".964" stop-color="#fff" stop-opacity=".157"/><stop offset="1" stop-color="#fff" stop-opacity=".392"/></linearGradient><linearGradient x1="40.29" y1="6.304" x2="40.29" y2="41.696" id="k" xlink:href="#c" gradientUnits="userSpaceOnUse" gradientTransform="matrix(.78378 0 0 .62162 -2.81 2.08)"/><linearGradient id="d"><stop offset="0" stop-color="#273445"/><stop offset="1" stop-color="#0e141f"/></linearGradient><linearGradient id="f"><stop offset="0" stop-color="#fafafa"/><stop offset="1" stop-color="#95a3ab"/></linearGradient><linearGradient gradientTransform="matrix(.69565 0 0 .66667 -.696 -2.667)" gradientUnits="userSpaceOnUse" y2="44.625" x2="22.5" y1="19.5" x1="22.5" id="l" xlink:href="#d"/><linearGradient gradientTransform="matrix(.76667 0 0 .80325 -.1 11.082)" gradientUnits="userSpaceOnUse" y2="12" x2="20" y1="-3" x1="10" id="m" xlink:href="#e"/><linearGradient id="e"><stop offset="0" stop-color="#fff"/><stop offset="1" stop-color="#fff" stop-opacity="0"/></linearGradient><linearGradient gradientTransform="matrix(.71146 0 0 .688 -1.423 -5.057)" gradientUnits="userSpaceOnUse" y2="70.295" x2="23.25" y1="-28.809" x1="23.25" id="j" xlink:href="#f"/></defs><g opacity=".3"><path overflow="visible" fill="url(#g)" d="M3.6 43h40.8v3H3.6z" transform="matrix(.66666 0 0 1.33333 0 -30.333)"/><path d="M3.6 43v3c-1.49.006-3.6-.672-3.6-1.5S1.662 43 3.6 43z" overflow="visible" fill="url(#h)" transform="matrix(.66666 0 0 1.33333 0 -30.333)"/><path d="M44.4 43v3c1.49.006 3.6-.672 3.6-1.5S46.338 43 44.4 43z" overflow="visible" fill="url(#i)" transform="matrix(.66666 0 0 1.33333 0 -30.333)"/></g><rect width="31" height="25" rx="2" ry="2" x=".5" y="4.5" color="#000" overflow="visible" fill="url(#j)"/><rect width="29" height="23" x="1.5" y="5.5" ry="1" rx="1" opacity=".5" fill="none" stroke="url(#k)" stroke-linecap="round" stroke-linejoin="round"/><rect width="31" height="25" rx="2" ry="2" x=".5" y="4.5" color="#000" overflow="visible" opacity=".5" fill="none" stroke="#667885" stroke-linecap="round" stroke-linejoin="round"/><rect width="32" height="4" y="10" rx="0" ry="0" fill="url(#l)"/><path fill="#fafafa" stroke="#95a3ab" d="M3.5 17.5h16v3h-16z"/><path d="M3.702 19l1.418-1.322M4.41 20.322l2.837-2.644M6.538 20.322l2.835-2.644M8.664 20.322l2.836-2.644M10.79 20.322l2.837-2.644M12.918 20.322l2.835-2.644M15.044 20.322l2.836-2.644M17.17 20.322L19.3 18.34" opacity=".3" fill="none" stroke="#95a3ab" stroke-width=".696"/><path d="M3 5c-1.108 0-2 .92-2 2.066V19L31 8.686v-1.62C31 5.92 30.108 5 29 5z" opacity=".2" fill="url(#m)"/><circle cx="27" cy="26" r="1" opacity=".1" fill="#fff"/><circle cx="27" cy="25" r="1" opacity=".25" fill="#667885"/><circle cx="23" cy="26" r="1" opacity=".1" fill="#fff"/><circle cx="23" cy="25" r="1" opacity=".25" fill="#667885"/></svg>
